svgs/duotone/bags-shopping.svg

<svg xmlns="http://www.w3.org/2000/svg" viewBox="0 0 576 512"><!--! Font Awesome Pro 6.4.0 by @fontawesome - https://fontawesome.com License - https://fontawesome.com/license (Commercial License) Copyright 2023 Fonticons, Inc. --><defs><style>.fa-secondary{opacity:.4}</style></defs><path class="fa-primary" d="M256 256c-35.3 0-64 28.7-64 64V448c0 35.3 28.7 64 64 64H512c35.3 0 64-28.7 64-64V320c0-35.3-28.7-64-64-64H256zm64 80v16c0 35.3 28.7 64 64 64s64-28.7 64-64V336c0-8.8 7.2-16 16-16s16 7.2 16 16v16c0 53-43 96-96 96s-96-43-96-96V336c0-8.8 7.2-16 16-16s16 7.2 16 16z"/><path class="fa-secondary" d="M224 48c-26.5 0-48 21.5-48 48v64h96V96c0-26.5-21.5-48-48-48zM64 160h64V96c0-53 43-96 96-96s96 43 96 96v64h64c35.3 0 64 28.7 64 64H240c-44.2 0-80 35.8-80 80V464c0 5.5 .6 10.8 1.6 16H64c-35.3 0-64-28.7-64-64V224c0-35.3 28.7-64 64-64zM320 336v16c0 35.3 28.7 64 64 64s64-28.7 64-64V336c0-8.8 7.2-16 16-16s16 7.2 16 16v16c0 53-43 96-96 96s-96-43-96-96V336c0-8.8 7.2-16 16-16s16 7.2 16 16z"/></svg>

<svg xmlns="http://www.w3.org/2000/svg" viewBox="0 0 576 512"><!--! Font Awesome Pro 6.3.0 by @fontawesome - https://fontawesome.com License - https://fontawesome.com/license (Commercial License) Copyright 2023 Fonticons, Inc. --><defs><style>.fa-secondary{opacity:.4}</style></defs><path class="fa-primary" d="M512 256C547.3 256 576 284.7 576 320V448C576 483.3 547.3 512 512 512H256C220.7 512 192 483.3 192 448V320C192 284.7 220.7 256 256 256H512zM320 336C320 327.2 312.8 320 304 320C295.2 320 288 327.2 288 336V352C288 405 330.1 448 384 448C437 448 480 405 480 352V336C480 327.2 472.8 320 464 320C455.2 320 448 327.2 448 336V352C448 387.3 419.3 416 384 416C348.7 416 320 387.3 320 352V336z"/><path class="fa-secondary" d="M64 160H128V96C128 42.98 170.1 0 224 0C277 0 320 42.98 320 96V160H384C419.3 160 448 188.7 448 224H240C195.8 224 160 259.8 160 304V464C160 469.5 160.6 474.8 161.6 480H64C28.65 480 0 451.3 0 416V224C0 188.7 28.65 160 64 160V160zM224 48C197.5 48 176 69.49 176 96V160H272V96C272 69.49 250.5 48 224 48zM320 352C320 387.3 348.7 416 384 416C419.3 416 448 387.3 448 352V336C448 327.2 455.2 320 464 320C472.8 320 480 327.2 480 336V352C480 405 437 448 384 448C330.1 448 288 405 288 352V336C288 327.2 295.2 320 304 320C312.8 320 320 327.2 320 336V352z"/></svg>
